icons/1_Primary/Matomo.svg

<svg xmlns="http://www.w3.org/2000/svg" width="1024" height="1024" fill="none">
   <g clip-path="url(#a)">
      <path fill="#54688C" d="M512 1024c282.77 0 512-229.23 512-512S794.77 0 512 0 0 229.23 0 512s229.23 512 512 512Z"/>
      <path fill="#fff" d="m622.1 596.5 71.9-112c10.3-15.3 16.2-33.7 16.2-53.4 0-2.7-.1-5.3-.3-7.9l80.2 122.2c.3.4.4.7.7 1.1l1.5 2.3-.1.1c7.9 12.9 12.5 28 12.6 44.1 0 46.6-37.8 84.4-84.4 84.4-28.6 0-53.7-14.2-69-35.9l-.1.1-.5-.8c-.4-.6-.8-1.3-1.3-1.9m-34.1-52.8 46-71.7c-2.5 1.4-5.1 2.8-7.8 4-.2.1-.4.2-.5.2-2.5 1.1-5 2.1-7.6 3-.5.2-.9.3-1.4.5-.7.2-1.5.5-2.2.7-1 .3-2.1.6-3.2.9-.6.2-1.2.3-1.8.5l-2.4.6-1.5.3c-1.2.3-2.5.5-3.8.7-.4.1-.9.1-1.3.2-1.2.2-2.3.3-3.5.4-.2 0-.5.1-.7.1l-4.2.3c-.4 0-.7 0-1.1.1-1.5.1-2.9.1-4.4.1-1.6 0-3.2 0-4.8-.1-.5 0-1.1-.1-1.6-.1-1-.1-2.1-.1-3.1-.2-.6-.1-1.3-.1-1.9-.2-.9-.1-1.9-.2-2.8-.4-.7-.1-1.3-.2-2-.3-.9-.1-1.7-.3-2.6-.5-.7-.1-1.4-.3-2-.4-.8-.2-1.6-.4-2.5-.6-.7-.2-1.4-.4-2.1-.5-.8-.2-1.6-.4-2.4-.7l-2.1-.6c-.8-.2-1.5-.5-2.2-.8-.7-.2-1.4-.5-2.1-.8-.7-.3-1.4-.6-2.1-.8l-2.1-.9c-.7-.3-1.3-.6-2-.9-.7-.3-1.4-.7-2.1-1-.5-.3-1.1-.6-1.6-.8l-.1-.2c-.7-.4-1.4-.7-2.1-1.1-.5-.3-1.1-.6-1.6-.9-.8-.4-1.5-.9-2.3-1.3-.4-.2-.7-.5-1.1-.7-2.1-1.3-4.1-2.7-6-4.1-2.1-1.6-4.2-3.3-6.2-5-.2-.2-.4-.3-.6-.5-.9-.8-1.7-1.6-2.5-2.4-.2-.2-.4-.4-.7-.6l-2.4-2.4c-.2-.2-.4-.5-.7-.7-.8-.8-1.5-1.7-2.3-2.5-.2-.2-.4-.5-.6-.7-.7-.9-1.5-1.8-2.2-2.7-.2-.2-.4-.4-.5-.7-.7-.9-1.4-1.9-2.1-2.8-.1-.2-.3-.4-.4-.6-.7-1-1.4-2-2.1-3.1-.1-.1-.2-.3-.3-.4l-2.1-3.3-.1-.1c-6.5-11.1-10.8-23.6-12.4-36.9 0-.2 0-.4-.1-.6l-38.9-55h-.1c-14.9-24.1-41.4-40.2-71.9-40.2h-.4c-30.4 0-57 16.1-71.8 40.2h-.1L257 509.2c13.8-7.7 29.6-12 46.4-12 49 0 89.5 36.9 95.2 84.3l43.9 61.6h.1c15.3 20.8 40 34.4 67.9 34.4h.4c27.9 0 52.5-13.5 67.9-34.4h.1l.7-1.1c1.7-2.4 3.3-4.9 4.9-7.6l30.9-48.2v-.1Zm-85.9-155.2c0 46.7 37.8 84.5 84.5 84.5s84.5-37.8 84.5-84.5-37.8-84.5-84.5-84.5-84.5 37.8-84.5 84.5ZM219 593.1c0 46.6 37.8 84.4 84.4 84.4 46.6 0 84.4-37.8 84.4-84.4 0-46.6-37.8-84.4-84.4-84.4-46.6 0-84.4 37.8-84.4 84.4Z"/>
   </g>
   <defs>
      <clipPath id="a">
         <path fill="#fff" d="M0 0h1024v1024H0z"/>
      </clipPath>
   </defs>
</svg>

<svg width="1024" height="1024" viewBox="0 0 1024 1024" fill="none" xmlns="http://www.w3.org/2000/svg">
<g clip-path="url(#clip0_2_2772)">
<path d="M512 1024C794.77 1024 1024 794.77 1024 512C1024 229.23 794.77 0 512 0C229.23 0 0 229.23 0 512C0 794.77 229.23 1024 512 1024Z" fill="#54688C"/>
<path d="M622.1 596.5L694 484.5C704.3 469.2 710.2 450.8 710.2 431.1C710.2 428.4 710.1 425.8 709.9 423.2L790.1 545.4C790.4 545.8 790.5 546.1 790.8 546.5L792.3 548.8L792.2 548.9C800.1 561.8 804.7 576.9 804.8 593C804.8 639.6 767 677.4 720.4 677.4C691.8 677.4 666.7 663.2 651.4 641.5L651.3 641.6L650.8 640.8C650.4 640.2 650 639.5 649.5 638.9M615.4 586.1L661.4 514.4C658.9 515.8 656.3 517.2 653.6 518.4C653.4 518.5 653.2 518.6 653.1 518.6C650.6 519.7 648.1 520.7 645.5 521.6C645 521.8 644.6 521.9 644.1 522.1C643.4 522.3 642.6 522.6 641.9 522.8C640.9 523.1 639.8 523.4 638.7 523.7C638.1 523.9 637.5 524 636.9 524.2L634.5 524.8L633 525.1C631.8 525.4 630.5 525.6 629.2 525.8C628.8 525.9 628.3 525.9 627.9 526C626.7 526.2 625.6 526.3 624.4 526.4C624.2 526.4 623.9 526.5 623.7 526.5L619.5 526.8C619.1 526.8 618.8 526.8 618.4 526.9C616.9 527 615.5 527 614 527C612.4 527 610.8 527 609.2 526.9C608.7 526.9 608.1 526.8 607.6 526.8C606.6 526.7 605.5 526.7 604.5 526.6C603.9 526.5 603.2 526.5 602.6 526.4C601.7 526.3 600.7 526.2 599.8 526C599.1 525.9 598.5 525.8 597.8 525.7C596.9 525.6 596.1 525.4 595.2 525.2C594.5 525.1 593.8 524.9 593.2 524.8C592.4 524.6 591.6 524.4 590.7 524.2C590 524 589.3 523.8 588.6 523.7C587.8 523.5 587 523.3 586.2 523L584.1 522.4C583.3 522.2 582.6 521.9 581.9 521.6C581.2 521.4 580.5 521.1 579.8 520.8C579.1 520.5 578.4 520.2 577.7 520L575.6 519.1C574.9 518.8 574.3 518.5 573.6 518.2C572.9 517.9 572.2 517.5 571.5 517.2C571 516.9 570.4 516.6 569.9 516.4L569.8 516.2C569.1 515.8 568.4 515.5 567.7 515.1C567.2 514.8 566.6 514.5 566.1 514.2C565.3 513.8 564.6 513.3 563.8 512.9C563.4 512.7 563.1 512.4 562.7 512.2C560.6 510.9 558.6 509.5 556.7 508.1C554.6 506.5 552.5 504.8 550.5 503.1C550.3 502.9 550.1 502.8 549.9 502.6C549 501.8 548.2 501 547.4 500.2C547.2 500 547 499.8 546.7 499.6L544.3 497.2C544.1 497 543.9 496.7 543.6 496.5C542.8 495.7 542.1 494.8 541.3 494C541.1 493.8 540.9 493.5 540.7 493.3C540 492.4 539.2 491.5 538.5 490.6C538.3 490.4 538.1 490.2 538 489.9C537.3 489 536.6 488 535.9 487.1C535.8 486.9 535.6 486.7 535.5 486.5C534.8 485.5 534.1 484.5 533.4 483.4C533.3 483.3 533.2 483.1 533.1 483L531 479.7L530.9 479.6C524.4 468.5 520.1 456 518.5 442.7C518.5 442.5 518.5 442.3 518.4 442.1L479.5 387.1H479.4C464.5 363 438 346.9 407.5 346.9H407.1C376.7 346.9 350.1 363 335.3 387.1H335.2L257 509.2C270.8 501.5 286.6 497.2 303.4 497.2C352.4 497.2 392.9 534.1 398.6 581.5L442.5 643.1H442.6C457.9 663.9 482.6 677.5 510.5 677.5H510.9C538.8 677.5 563.4 664 578.8 643.1H578.9L579.6 642C581.3 639.6 582.9 637.1 584.5 634.4L615.4 586.2V586.1ZM529.5 430.9C529.5 477.6 567.3 515.4 614 515.4C660.7 515.4 698.5 477.6 698.5 430.9C698.5 384.2 660.7 346.4 614 346.4C567.3 346.4 529.5 384.2 529.5 430.9ZM219 593.1C219 639.7 256.8 677.5 303.4 677.5C350 677.5 387.8 639.7 387.8 593.1C387.8 546.5 350 508.7 303.4 508.7C256.8 508.7 219 546.5 219 593.1Z" fill="white"/>
</g>
<defs>
<clipPath id="clip0_2_2772">
<rect width="1024" height="1024" fill="white"/>
</clipPath>
</defs>
</svg>
